img/svg/editors/layout-text-window.svg

<svg width="24" height="24" viewBox="0 0 24 24" fill="none" xmlns="http://www.w3.org/2000/svg">
<g clip-path="url(#clip0_11680_71802)">
<path d="M3 0.428711H21C21.5968 0.428711 22.1723 0.6358 22.6299 1.01074L22.8184 1.18164C23.3006 1.66388 23.5713 2.31801 23.5713 3V21C23.5713 21.5968 23.3642 22.1723 22.9893 22.6299L22.8184 22.8184C22.3361 23.3006 21.682 23.5713 21 23.5713H3C2.40324 23.5713 1.8277 23.3642 1.37012 22.9893L1.18164 22.8184C0.699405 22.3361 0.428711 21.682 0.428711 21V3L0.441406 2.74609C0.491471 2.24143 0.689315 1.76239 1.01074 1.37012L1.18164 1.18164C1.60365 0.759631 2.15735 0.499812 2.74609 0.441406L3 0.428711ZM1.07129 21C1.07129 21.4476 1.22659 21.8795 1.50781 22.2227L1.63672 22.3633C1.9984 22.725 2.48851 22.9287 3 22.9287H16.9287V5.57129H1.07129V21ZM17.5713 22.9287H21C21.4476 22.9287 21.8795 22.7734 22.2227 22.4922L22.3633 22.3633C22.725 22.0016 22.9287 21.5115 22.9287 21V5.57129H17.5713V22.9287ZM5.25 18.4287H12.75C12.8352 18.4287 12.9173 18.4622 12.9775 18.5225C13.0378 18.5827 13.0713 18.6648 13.0713 18.75C13.0713 18.8352 13.0378 18.9173 12.9775 18.9775C12.9173 19.0378 12.8352 19.0713 12.75 19.0713H5.25C5.18599 19.0713 5.12375 19.0526 5.07129 19.0176L5.02246 18.9775C4.96218 18.9173 4.92871 18.8352 4.92871 18.75C4.92871 18.686 4.94739 18.6237 4.98242 18.5713L5.02246 18.5225C5.08274 18.4622 5.16475 18.4287 5.25 18.4287ZM5.25 13.9287H12.75C12.8352 13.9287 12.9173 13.9622 12.9775 14.0225C13.0378 14.0827 13.0713 14.1648 13.0713 14.25C13.0713 14.3352 13.0378 14.4173 12.9775 14.4775C12.9173 14.5378 12.8352 14.5713 12.75 14.5713H5.25C5.18599 14.5713 5.12375 14.5526 5.07129 14.5176L5.02246 14.4775C4.96218 14.4173 4.92871 14.3352 4.92871 14.25C4.92871 14.186 4.94739 14.1237 4.98242 14.0713L5.02246 14.0225C5.08274 13.9622 5.16475 13.9287 5.25 13.9287ZM5.25 9.42871H12.75C12.814 9.42871 12.8763 9.44739 12.9287 9.48242L12.9775 9.52246C13.0378 9.58274 13.0713 9.66475 13.0713 9.75C13.0713 9.81402 13.0526 9.87625 13.0176 9.92871L12.9775 9.97754C12.9173 10.0378 12.8352 10.0713 12.75 10.0713H5.25C5.18599 10.0713 5.12375 10.0526 5.07129 10.0176L5.02246 9.97754C4.96218 9.91726 4.92871 9.83525 4.92871 9.75C4.92871 9.68598 4.94738 9.62375 4.98242 9.57129L5.02246 9.52246C5.08274 9.46218 5.16475 9.42871 5.25 9.42871ZM3 1.07129C2.48851 1.07129 1.9984 1.27504 1.63672 1.63672C1.27504 1.9984 1.07129 2.48851 1.07129 3V4.92871H22.9287V3C22.9287 2.55242 22.7734 2.12053 22.4922 1.77734L22.3633 1.63672C22.0016 1.27504 21.5115 1.07129 21 1.07129H3Z" fill="#FBFBFB" stroke="#FBFBFB" stroke-width="0.857143"/>
</g>
<defs>
<clipPath id="clip0_11680_71802">
<rect width="24" height="24" fill="white"/>
</clipPath>
</defs>
</svg>

<svg width="24" height="24" fill="none" xmlns="http://www.w3.org/2000/svg"><g clip-path="url(#clip0_11680_71802)"><path d="M3 .429h18c.597 0 1.172.207 1.63.582l.188.17c.483.483.753 1.137.753 1.819v18c0 .597-.207 1.172-.582 1.63l-.17.188a2.572 2.572 0 01-1.819.753H3a2.572 2.572 0 01-1.63-.582l-.188-.17A2.572 2.572 0 01.429 21V3l.012-.254c.05-.505.248-.984.57-1.376l.17-.188a2.571 2.571 0 011.565-.74L3 .428zM1.071 21c0 .448.156.88.437 1.223l.129.14c.361.362.852.566 1.363.566h13.929V5.57H1.07V21zm16.5 1.929H21c.448 0 .88-.156 1.223-.437l.14-.129c.362-.361.566-.851.566-1.363V5.571H17.57V22.93zm-12.321-4.5h7.5a.321.321 0 110 .642h-7.5a.322.322 0 01-.179-.053l-.049-.04a.321.321 0 01-.04-.407l.04-.049a.322.322 0 01.228-.093zm0-4.5h7.5a.321.321 0 110 .642h-7.5a.322.322 0 01-.179-.053l-.049-.04a.321.321 0 01-.04-.407l.04-.048a.322.322 0 01.228-.094zm0-4.5h7.5c.064 0 .126.018.179.053l.048.04a.322.322 0 01.04.407l-.04.049a.322.322 0 01-.227.093h-7.5a.322.322 0 01-.179-.053l-.049-.04a.322.322 0 01-.04-.407l.04-.049a.322.322 0 01.228-.093zM3 1.07A1.928 1.928 0 001.071 3v1.929H22.93V3c0-.448-.156-.88-.437-1.223l-.129-.14A1.928 1.928 0 0021 1.07H3z" fill="#FBFBFB" stroke="#FBFBFB" stroke-width=".857"/></g><defs><clipPath id="clip0_11680_71802"><path fill="#fff" d="M0 0h24v24H0z"/></clipPath></defs></svg>
